X: 221
T: A Ha'penny For A Cotton Ball
R: reel
M: 4/4
K: Dmajor
F2FE FGA2|B2BA Bdd2|F2FE DEFD|EDB,C D3E|
F2FE FGA2|B2BA B2AG|F2FE DEFD|EDEF D2FA||
dcBA BAFA|dcBA B3c|dcBA BAFD|EDEF DEFA|
ddcd BAFA|dfed B3c|dfed cdec|BABc dcAG||

